vendor/assets/images/icons/google.svg

<?xml version="1.0" encoding="UTF-8" standalone="no"?>
<svg width="32px" height="272px" viewBox="0 0 32 272" version="1.1" xmlns="http://www.w3.org/2000/svg" xmlns:xlink="http://www.w3.org/1999/xlink" xmlns:sketch="http://www.bohemiancoding.com/sketch/ns">
    <!-- Generator: Sketch 3.3.3 (12081) - http://www.bohemiancoding.com/sketch -->
    <title>google</title>
    <desc>Created with Sketch.</desc>
    <defs></defs>
    <g id="Page-1" stroke="none" stroke-width="1" fill="none" fill-rule="evenodd" sketch:type="MSPage">
        <g id="google" sketch:type="MSLayerGroup">
            <path d="M16,272 C24.836556,272 32,264.836556 32,256 C32,247.163444 24.836556,240 16,240 C7.163444,240 0,247.163444 0,256 C0,264.836556 7.163444,272 16,272 Z M12.7332962,255.244507 L12.7332962,257.299543 L16.1326681,257.299543 C15.9956657,258.181496 15.1051501,259.885463 12.7332962,259.885463 C10.6868229,259.885463 9.01710627,258.190058 9.01710627,256.100772 C9.01710627,254.011486 10.6868229,252.316081 12.7332962,252.316081 C13.8978165,252.316081 14.6770176,252.812715 15.1222754,253.240847 L16.7491788,251.673882 C15.7045356,250.69774 14.3516369,250.106917 12.7332962,250.106917 C9.4195508,250.106917 6.73944149,252.787027 6.73944149,256.100772 C6.73944149,259.414517 9.4195508,262.094627 12.7332962,262.094627 C16.1926066,262.094627 18.4873967,259.662834 18.4873967,256.237774 C18.4873967,255.843893 18.4445834,255.5442 18.3932075,255.244507 L12.7332962,255.244507 Z M25.5772705,255.244507 L23.8647406,255.244507 L23.8647406,253.531977 L22.1522107,253.531977 L22.1522107,255.244507 L20.4396808,255.244507 L20.4396808,256.957037 L22.1522107,256.957037 L22.1522107,258.669567 L23.8647406,258.669567 L23.8647406,256.957037 L25.5772705,256.957037 L25.5772705,255.244507 Z" id="Oval-1" fill="#D34836" sketch:type="MSShapeGroup"></path>
            <path d="M16,208.004 C24.836556,208.004 32,200.840556 32,192.004 C32,183.167444 24.836556,176.004 16,176.004 C7.163444,176.004 0,183.167444 0,192.004 C0,200.840556 7.163444,208.004 16,208.004 Z M12.7332962,191.248507 L12.7332962,193.303543 L16.1326681,193.303543 C15.9956657,194.185496 15.1051501,195.889463 12.7332962,195.889463 C10.6868229,195.889463 9.01710627,194.194058 9.01710627,192.104772 C9.01710627,190.015486 10.6868229,188.320081 12.7332962,188.320081 C13.8978165,188.320081 14.6770176,188.816715 15.1222754,189.244847 L16.7491788,187.677882 C15.7045356,186.70174 14.3516369,186.110917 12.7332962,186.110917 C9.4195508,186.110917 6.73944149,188.791027 6.73944149,192.104772 C6.73944149,195.418517 9.4195508,198.098627 12.7332962,198.098627 C16.1926066,198.098627 18.4873967,195.666834 18.4873967,192.241774 C18.4873967,191.847893 18.4445834,191.5482 18.3932075,191.248507 L12.7332962,191.248507 Z M25.5772705,191.248507 L23.8647406,191.248507 L23.8647406,189.535977 L22.1522107,189.535977 L22.1522107,191.248507 L20.4396808,191.248507 L20.4396808,192.961037 L22.1522107,192.961037 L22.1522107,194.673567 L23.8647406,194.673567 L23.8647406,192.961037 L25.5772705,192.961037 L25.5772705,191.248507 Z" id="Oval-1-Copy" fill="#008FE9" sketch:type="MSShapeGroup"></path>
            <path d="M16,144.021 C24.836556,144.021 32,136.857556 32,128.021 C32,119.184444 24.836556,112.021 16,112.021 C7.163444,112.021 0,119.184444 0,128.021 C0,136.857556 7.163444,144.021 16,144.021 Z M12.7332962,127.265507 L12.7332962,129.320543 L16.1326681,129.320543 C15.9956657,130.202496 15.1051501,131.906463 12.7332962,131.906463 C10.6868229,131.906463 9.01710627,130.211058 9.01710627,128.121772 C9.01710627,126.032486 10.6868229,124.337081 12.7332962,124.337081 C13.8978165,124.337081 14.6770176,124.833715 15.1222754,125.261847 L16.7491788,123.694882 C15.7045356,122.71874 14.3516369,122.127917 12.7332962,122.127917 C9.4195508,122.127917 6.73944149,124.808027 6.73944149,128.121772 C6.73944149,131.435517 9.4195508,134.115627 12.7332962,134.115627 C16.1926066,134.115627 18.4873967,131.683834 18.4873967,128.258774 C18.4873967,127.864893 18.4445834,127.5652 18.3932075,127.265507 L12.7332962,127.265507 Z M25.5772705,127.265507 L23.8647406,127.265507 L23.8647406,125.552977 L22.1522107,125.552977 L22.1522107,127.265507 L20.4396808,127.265507 L20.4396808,128.978037 L22.1522107,128.978037 L22.1522107,130.690567 L23.8647406,130.690567 L23.8647406,128.978037 L25.5772705,128.978037 L25.5772705,127.265507 Z" id="Oval-1-Copy-2" fill="#97999A" sketch:type="MSShapeGroup"></path>
            <path d="M16,80.021 C24.836556,80.021 32,72.857556 32,64.021 C32,55.184444 24.836556,48.021 16,48.021 C7.163444,48.021 0,55.184444 0,64.021 C0,72.857556 7.163444,80.021 16,80.021 Z M12.7332962,63.265507 L12.7332962,65.3205429 L16.1326681,65.3205429 C15.9956657,66.2024958 15.1051501,67.9064631 12.7332962,67.9064631 C10.6868229,67.9064631 9.01710627,66.2110585 9.01710627,64.121772 C9.01710627,62.0324855 10.6868229,60.3370809 12.7332962,60.3370809 C13.8978165,60.3370809 14.6770176,60.8337146 15.1222754,61.261847 L16.7491788,59.6948822 C15.7045356,58.7187401 14.3516369,58.1279173 12.7332962,58.1279173 C9.4195508,58.1279173 6.73944149,60.8080266 6.73944149,64.121772 C6.73944149,67.4355174 9.4195508,70.1156267 12.7332962,70.1156267 C16.1926066,70.1156267 18.4873967,67.6838342 18.4873967,64.2587744 C18.4873967,63.8648925 18.4445834,63.5651998 18.3932075,63.265507 L12.7332962,63.265507 Z M25.5772705,63.265507 L23.8647406,63.265507 L23.8647406,61.5529771 L22.1522107,61.5529771 L22.1522107,63.265507 L20.4396808,63.265507 L20.4396808,64.978037 L22.1522107,64.978037 L22.1522107,66.6905669 L23.8647406,66.6905669 L23.8647406,64.978037 L25.5772705,64.978037 L25.5772705,63.265507 Z" id="Oval-1-Copy-3" fill="#333333" sketch:type="MSShapeGroup"></path>
            <path d="M16,32.0005 C24.836556,32.0005 32,24.837056 32,16.0005 C32,7.163944 24.836556,0.0005 16,0.0005 C7.163444,0.0005 0,7.163944 0,16.0005 C0,24.837056 7.163444,32.0005 16,32.0005 Z M12.7332962,15.245007 L12.7332962,17.3000429 L16.1326681,17.3000429 C15.9956657,18.1819958 15.1051501,19.8859631 12.7332962,19.8859631 C10.6868229,19.8859631 9.01710627,18.1905585 9.01710627,16.101272 C9.01710627,14.0119855 10.6868229,12.3165809 12.7332962,12.3165809 C13.8978165,12.3165809 14.6770176,12.8132146 15.1222754,13.241347 L16.7491788,11.6743822 C15.7045356,10.6982401 14.3516369,10.1074173 12.7332962,10.1074173 C9.4195508,10.1074173 6.73944149,12.7875266 6.73944149,16.101272 C6.73944149,19.4150174 9.4195508,22.0951267 12.7332962,22.0951267 C16.1926066,22.0951267 18.4873967,19.6633342 18.4873967,16.2382744 C18.4873967,15.8443925 18.4445834,15.5446998 18.3932075,15.245007 L12.7332962,15.245007 Z M25.5772705,15.245007 L23.8647406,15.245007 L23.8647406,13.5324771 L22.1522107,13.5324771 L22.1522107,15.245007 L20.4396808,15.245007 L20.4396808,16.957537 L22.1522107,16.957537 L22.1522107,18.6700669 L23.8647406,18.6700669 L23.8647406,16.957537 L25.5772705,16.957537 L25.5772705,15.245007 Z" id="Oval-1-Copy-4" fill="#FFFFFF" sketch:type="MSShapeGroup"></path>
        </g>
    </g>
</svg>

<svg width="32" height="272" viewBox="0 0 32 272" xmlns="http://www.w3.org/2000/svg"><title>google</title><desc>Created with Sketch.</desc><g fill="none" fill-rule="evenodd"><g><path d="M16 272c8.837 0 16-7.163 16-16s-7.163-16-16-16-16 7.163-16 16 7.163 16 16 16zm-3.267-16.755v2.055h3.4c-.137.88-1.028 2.585-3.4 2.585-2.046 0-3.716-1.695-3.716-3.784 0-2.09 1.67-3.784 3.716-3.784 1.165 0 1.944.497 2.39.925l1.626-1.566c-1.045-.976-2.398-1.567-4.017-1.567-3.313 0-5.994 2.68-5.994 5.994 0 3.315 2.68 5.995 5.993 5.995 3.46 0 5.754-2.432 5.754-5.857 0-.394-.042-.694-.094-.993h-5.66zm12.844 0h-1.712v-1.713h-1.713v1.713H20.44v1.712h1.712v1.713h1.713v-1.713h1.712v-1.712z" fill="#D34836"/><path d="M16 208.004c8.837 0 16-7.163 16-16s-7.163-16-16-16-16 7.163-16 16 7.163 16 16 16zm-3.267-16.755v2.054h3.4c-.137.88-1.028 2.585-3.4 2.585-2.046 0-3.716-1.696-3.716-3.785 0-2.09 1.67-3.785 3.716-3.785 1.165 0 1.944.497 2.39.925l1.626-1.567c-1.045-.976-2.398-1.567-4.017-1.567-3.313 0-5.994 2.68-5.994 5.995 0 3.314 2.68 5.994 5.993 5.994 3.46 0 5.754-2.433 5.754-5.858 0-.394-.042-.694-.094-.993h-5.66zm12.844 0h-1.712v-1.714h-1.713v1.713H20.44v1.71h1.712v1.714h1.713v-1.713h1.712v-1.71z" fill="#008FE9"/><path d="M16 144.02c8.837 0 16-7.162 16-16 0-8.836-7.163-16-16-16s-16 7.164-16 16c0 8.838 7.163 16 16 16zm-3.267-16.754v2.055h3.4c-.137.882-1.028 2.586-3.4 2.586-2.046 0-3.716-1.695-3.716-3.784 0-2.09 1.67-3.785 3.716-3.785 1.165 0 1.944.497 2.39.925l1.626-1.567c-1.045-.976-2.398-1.567-4.017-1.567-3.313 0-5.994 2.68-5.994 5.994 0 3.314 2.68 5.994 5.993 5.994 3.46 0 5.754-2.432 5.754-5.857 0-.395-.042-.695-.094-.994h-5.66zm12.844 0h-1.712v-1.713h-1.713v1.713H20.44v1.712h1.712v1.713h1.713v-1.712h1.712v-1.712z" fill="#97999A"/><path d="M16 80.02c8.837 0 16-7.162 16-16 0-8.836-7.163-16-16-16s-16 7.164-16 16c0 8.838 7.163 16 16 16zm-3.267-16.754v2.055h3.4c-.137.882-1.028 2.586-3.4 2.586-2.046 0-3.716-1.695-3.716-3.784 0-2.09 1.67-3.785 3.716-3.785 1.165 0 1.944.497 2.39.925l1.626-1.567c-1.045-.976-2.398-1.567-4.017-1.567-3.313 0-5.994 2.68-5.994 5.994 0 3.314 2.68 5.994 5.993 5.994 3.46 0 5.754-2.432 5.754-5.857 0-.395-.042-.695-.094-.994h-5.66zm12.844 0h-1.712v-1.713h-1.713v1.713H20.44v1.712h1.712v1.713h1.713V64.98h1.712v-1.712z" fill="#333"/><path d="M16 32c8.837 0 16-7.163 16-16 0-8.836-7.163-16-16-16S0 7.165 0 16c0 8.837 7.163 16 16 16zm-3.267-16.755V17.3h3.4c-.137.882-1.028 2.586-3.4 2.586-2.046 0-3.716-1.695-3.716-3.785 0-2.088 1.67-3.783 3.716-3.783 1.165 0 1.944.496 2.39.924l1.626-1.566c-1.045-.976-2.398-1.567-4.017-1.567-3.313 0-5.994 2.68-5.994 5.994 0 3.315 2.68 5.995 5.993 5.995 3.46 0 5.754-2.432 5.754-5.857 0-.394-.042-.693-.094-.993h-5.66zm12.844 0h-1.712v-1.713h-1.713v1.713H20.44v1.713h1.712v1.712h1.713v-1.712h1.712v-1.713z" fill="#fff"/></g></g></svg>
